www/assets/icons/cable.svg

<svg xmlns="http://www.w3.org/2000/svg" width="24" height="24" viewBox="0 0 24 24" fill='currentColor'><path d="M20 5V4c0-.55-.45-1-1-1h-2c-.55 0-1 .45-1 1v1h-1v4c0 .55.45 1 1 1h1v7c0 1.1-.9 2-2 2s-2-.9-2-2V7c0-2.21-1.79-4-4-4S5 4.79 5 7v7H4c-.55 0-1 .45-1 1v4h1v1c0 .55.45 1 1 1h2c.55 0 1-.45 1-1v-1h1v-4c0-.55-.45-1-1-1H7V7c0-1.1.9-2 2-2s2 .9 2 2v10c0 2.21 1.79 4 4 4s4-1.79 4-4v-7h1c.55 0 1-.45 1-1V5z"/></svg>

<svg width="24" height="24" viewBox="0 0 24 24" xmlns="http://www.w3.org/2000/svg" fill='currentColor'><path d="M20 5V4C20 3.45 19.55 3 19 3H17C16.45 3 16 3.45 16 4V5H15V9C15 9.55 15.45 10 16 10H17V17C17 18.1 16.1 19 15 19C13.9 19 13 18.1 13 17V7C13 4.79 11.21 3 9 3C6.79 3 5 4.79 5 7V14H4C3.45 14 3 14.45 3 15V19H4V20C4 20.55 4.45 21 5 21H7C7.55 21 8 20.55 8 20V19H9V15C9 14.45 8.55 14 8 14H7V7C7 5.9 7.9 5 9 5C10.1 5 11 5.9 11 7V17C11 19.21 12.79 21 15 21C17.21 21 19 19.21 19 17V10H20C20.55 10 21 9.55 21 9V5H20Z"/></svg>
